!!!!SEGMENT: pl-wtm--r-2029--002_smietanski-emil-wladyslaw--guitarre-mazurka.krn
!!!cenid: 18xx:1981
!!!COM: Śmietański, Emil Władysław
!!!COM-rismid: pe50041781
!!!CDT: 1845-1886
!!!CNT: Polish
!!!OTL: Guitarre - Mazurka
!!!PDT: 1869
!!!AGN: Secular; Mazurka
!!!SMS-siglum: PL-Wtm
!!!SMS-shelfmark: R 2029
!!!SMS-shelfwork: 002 W
!!!SMS-variant:
!!!SMS-altvar:
!!!NIFC-rismid: 1001111524
!!!URL-scan: http://repozytorium.nifc.pl/skany/pl-wtm-nut--r2029
!!!ONB-nifc: UWAGA: utwory w zbiorze: 1. Les Adieux a Cracovie, 2. Guitarre – Mazurka
!!!AIN: 1 empty 1 forte
!!!key:
**kern	**kern	**dynam
*part2	*part1	*part1
*staff2	*staff1	*
*Iempty	*Iforte	*
*	*I"Fortepian	*
*>[A,A,B]	*>[A,A,B]	*
*clefF4	*clefG2	*
*k[f#]	*k[f#]	*
*G:	*G:	*
*M3/4	*M3/4	*
=1	=1	=1
*>A	*>A	*
!	!LO:TX:t=P:problem=all\left or middle&colon; global	!
!	!LO:TX:t=P:global:problem=arpeggio z prawej strony akordu	!
!	!LO:TX:a:i:t=Arpeggiando.	!
4B\: 4D\: 4GG:\	4bb\: 4gg\: 4dd\: 4g:\	f
4g\ 4B\	4bb\: 4gg\: 4dd\: 4g:\	.
4d\	4bb\: 4gg\: 4dd\: 4g:\	.
=2	=2	=2
4BB/ 4BBB/	8.bb\L 8.ff#\ 8.dd\ 8.f#\	.
.	16cc#X\Jk 16e#X\	.
4d\ 4B\ 4F#\	2bb\ 2ff#\ 2dd\ 2f#\	.
4d\ 4B\	.	.
=3	=3	=3
!	!LO:N:vis=8	!
4D\ 4DD\	8.bb\L 8.ff#\ 8.ccn\ 8.f#\	.
.	16e#X\K	.
!	!LO:N:vis=8	!
4c\ 4D\	8.bb\ 8.ff#\ 8.cc\ 8.f#\	.
.	16e#\K	.
!	!LO:N:vis=8	!
4f#\ 4F#\	8.bb\ 8.ff#\ 8.cc\ 8.f#\	.
.	16d\Jk	.
=4	=4	=4
!	!LO:N:vis=8	!
4D\ 4GG\	8.gg\L 8.b\ 8.g\	.
.	16f#\Jk	.
(4B\ 4D\	(4gg\ 4b\ 4g\	.
8g\ 8B\)	8ggg\ 8bb\ 8gg\)	sf
8r	8r	.
=5	=5	=5
4B\ 4D\ 4GG\	4bb\ 4gg\ 4dd\ 4g\	.
4g\ 4B\	4bb\ 4gg\ 4dd\ 4g\	.
4d\	4bb\ 4gg\ 4dd\ 4g\	.
=6	=6	=6
!	!LO:N:n=1:vis=8	!
4BB/ 4BBB/	8.bb\L 8.ff#\ 8.dd\ 8.f#\	.
.	16cc#X\Jk 16e#X\	.
4d\ 4B\ 4F#\	2bb\ 2ff#\ 2dd\ 2f#\	.
4d\ 4B\	.	.
!!LO:LB:g=original
=7	=7	=7
4D\ 4DD\	8.bb\L 8.ff#\ 8.cc\ 8.f#\	.
.	16e#X\K	.
4c\ 4D\	8.bb\ 8.ff#\ 8.cc\ 8.f#\	.
.	16e#\K	.
4f#\ 4F#\	8.bb\ 8.ff#\ 8.cc\ 8.f#\	.
.	16d\Jk	.
=8	=8	=8
4B\ 4D\ 4GG\	4gg\ 4b\ 4g\	.
8g\ 8B\	8ggg\ 8bb\ 8gg\	sf
8r	8r	.
4r	4r	.
=9	=9	=9
4d\: 4Fn\: 4BB-X:\	4ddd\: 4bb-X\: 4ffn\: 4b-X:\	pp
!	!LO:TX:b:i:t=sempre.	!
4fn\ 4B-X\	4ddd\: 4bb-\: 4ff\: 4b-:\	.
4d\ 4Fn\	4ddd\: 4bb-\: 4ff\: 4b-:\	.
=10	=10	=10
!	!LO:N:vis=8	!
4Fn\ 4AA\ 4DD\	8.ddd\L 8.aa\ 8.ffn\ 8.a\	.
.	16ee\Jk 16g#X\	.
4fn\ 4A\	2ddd\ 2aa\ 2ff\ 2a\	.
4d\ 4Fn\	.	.
=11	=11	=11
!	!LO:N:n=1:vis=8	!
!	!LO:N:n=2:vis=8	!
!	!LO:N:n=3:vis=8	!
4A\ 4E-X\ 4FFn\	8.ddd\L 8.aa\ 8.ee-X\ 8.a\	.
.	16g#X\K	.
!	!LO:N:n=1:vis=8	!
!	!LO:N:n=2:vis=8	!
!	!LO:N:n=3:vis=8	!
4fn\ 4A\	8.ddd\ 8.aa\ 8.ee-\ 8.a\	.
.	16g#\K	.
!	!LO:N:n=1:vis=8	!
!	!LO:N:n=2:vis=8	!
!	!LO:N:n=3:vis=8	!
4e-X\ 4Fn\	8.ddd\ 8.aa\ 8.ee-\ 8.a\	.
.	16fn\Jk	.
=12	=12	=12
!	!LO:N:vis=8	!
4Fn\ 4BB-X\	8.bb-X\L 8.dd\ 8.b-X\	.
.	16a\Jk	.
(4d\ 4F\	(4bb-\ 4dd\ 4b-\	.
8b-X\ 8d\)	8bbb-X\ 8ddd\ 8bb-\)	.
8r	8r	.
!!LO:LB:g=original
=13	=13	=13
!LO:SIC:v:n=3:s=4BB-	!	!
4d\ 4Fn\ 4BB\	4ddd\ 4bb-X\ 4ffn\ 4b-X\	.
4fn\ 4B-X\	4ddd\ 4bb-\ 4ff\ 4b-\	.
4d\ 4F\	4ddd\ 4bb-\ 4ff\ 4b-\	.
=14	=14	=14
!	!LO:N:n=1:vis=8	!
!	!LO:N:n=2:vis=8	!
4Fn\ 4AA\ 4DD\	8.ddd\L 8.aa\ 8.ffn\ 8.a\	.
.	16ee\Jk 16g#X\	.
4fn\ 4A\	2ddd\ 2aa\ 2ff\ 2a\	.
4d\ 4Fn\	.	.
=15	=15	=15
!	!LO:N:vis=8	!
4A\ 4E-X\ 4FFn\	8.ddd\L 8.aa\ 8.ee-X\ 8.a\	.
.	16g#X\K	.
!	!LO:N:vis=8	!
4fn\ 4A\	8.ddd\ 8.aa\ 8.ee-\ 8.a\	.
.	16g#\K	.
!	!LO:N:vis=8	!
4e-X\ 4Fn\	8.ddd\ 8.aa\ 8.ee-\ 8.a\	.
.	16fn\Jk	.
=16	=16	=16
4Fn\ 4BB-X\	4bb-X\ 4dd\ 4b-X\	.
4b-X\ 4d\	4bbb-X\ 4ddd\ 4bb-\	.
4r	4r	.
=17||	=17||	=17||
*	*clefF4	*
!	!LO:TX:a:i:t=Cantando.	!
4BB-X\	8.B-X\L	f
.	16A\Jk	.
4b-X\ 4fn\ 4d\	4B-\	.
4b-\ 4f\ 4d\	4Fn\	.
=18	=18	=18
!	!LO:N:vis=8	!
4EE-X/	8.B-X\L	.
.	16A\Jk	.
4b-X\ 4g\ 4e-X\	4B-\	.
4b-\ 4g\ 4e-\	4G\	.
=19	=19	=19
!	!LO:TX:t=P:problem=klucz wiolinowy poprawiony na basowy	!
!	!LO:TX:t=P:problem=klamra łukowa	!
!	!LO:TX:b:i:t=espress.	!
4FFn/	12Fn/L	.
.	12G/	.
.	12F/J	.
4a\ 4e-X\ 4A\	4E-X/	.
4a\ 4e-\ 4A\	4E-/	.
=20	=20	=20
!LO:TX:t=P:problem=4BB- poprawione na 4BBB-	!LO:N:vis=8	!
4BBB-X/	8.D/L	.
.	16E-X/Jk	.
4b-X\ 4d\ 4B-X\	4En/	.
4b-\ 4d\ 4B-\	4Fn/	.
=21	=21	=21
4BB-X\	8.B-X\L	.
.	16A\Jk	.
4b-X\ 4fn\ 4d\	4B-\	.
4b-yX\ 4f\ 4d\	4Fn\	.
=22	=22	=22
!	!LO:N:vis=8	!
4EE-X/	8.B-X\L	.
.	16A\Jk	.
4b-X\ 4g\ 4e-X\	4B-\	.
4b-\ 4g\ 4e-\	4G\	.
=23	=23	=23
!	!LO:TX:t=P:problem=klamra łukowa	!
4FFn/	12Fn\L	.
.	12G\	.
.	12F\J	.
!	!LO:SIC:v:s=8E-	!
4a\ 4fn\ 4e-X\	8E\L	.
.	8F\J	.
.	32qqF/	.
4a\ 4f\ 4e-\	8d\L	.
.	8c\J	.
=24	=24	=24
4BB-X\	4B-X\	.
4b-X\ 4fn\ 4d\	4B-\	.
!	!LO:TX:t=P:problem=brak klucza na końcu systemu	!
4r	4r	.
!!LO:LB:g=original
=25	=25	=25
*	*clefG2	*
4DD/	8.d/L	p
.	16c#X/Jk	.
*clefG2	*	*
4dd/ 4a/ 4f#/	4d/	.
4dd/ 4a/ 4f#/	4A/	.
*clefF4	*	*
=26	=26	=26
!	!LO:TX:a:i:t=molto espr.	!
!	!LO:N:vis=8	!
4GG/	8.d/L	.
.	16c#X/Jk	.
*clefG2	*	*
4dd/ 4b/ 4g/	4d/	.
4dd/ 4b/ 4g/	4B/	.
*clefF4	*	*
=27	=27	=27
!	!LO:TX:t=P:problem=klamra łukowa	!
4AA/	12A/L	.
.	12B/	.
.	12A/J	.
*clefG2	*	*
4cc#X/ 4g/ 4c#X/	4G/	.
4cc#/ 4g/ 4c#/	4G/	.
*clefF4	*	*
=28	=28	=28
4DD/	8.F#/L	.
.	16G/Jk	.
*clefG2	*	*
4dd/ 4f#/ 4d/	4G#X/	.
4dd/ 4f#/ 4d/	4A/	.
*clefF4	*	*
=29	=29	=29
4D\	8.d/L	.
.	16c#X/Jk	.
*clefG2	*	*
4dd/ 4a/ 4f#/	4d/	.
4dd/ 4a/ 4f#/	4A/	.
*clefF4	*	*
=30	=30	=30
!	!LO:TX:b:i:t=molto rall.	!
4GG#X/	8.d/L	.
.	16c#X/Jk	.
*clefG2	*	*
4dd/ 4g#X/ 4e/	4d/	.
4dd/ 4g#/ 4e/	4B/	.
*clefF4	*	*
!!LO:LB:g=original
=31	=31	=31
!	!LO:N:vis=16	!
4AA\	8A/L	.
*	*Xtuplet	*
*	*rscale:1/2	*
.	24A/L	.
!	!LO:TX:b:i:t=tempo rubato.	!
.	24B/	.
.	24A/JJ	.
*clefG2	*rscale:1	*
4dd\ 4a\ 4f#\	8G#X/L	.
.	8A/	.
.	32qqA/	.
4cc#X\ 4a\ 4g\	8f#/	.
.	8e/J	.
*clefF4	*	*
=32	=32	=32
4DD/	4.d/	pp
*clefG2	*	*
4dd/ 4a/ 4f#/	.	.
.	8A/	.
4r	16d/LL	.
.	16f#/	.
.	16a/	.
.	16A/JJ	.
*clefF4	*	*
=33	=33	=33
4DD/	4.d/	.
*clefG2	*	*
4dd/ 4a/ 4f#/	.	.
.	8A/	.
4r	16d/LL	.
.	16f#/	.
.	16a/	.
.	16A/JJ	.
*clefF4	*	*
=34	=34	=34
4DD/	4.d/	.
*clefG2	*	*
4aa\ 4dd\ 4f#\	.	.
.	24a/LL	.
.	24dd/	.
.	24a/JJ	.
!	!LO:TX:t=P:problem=klamra łukowa	!
*	*tuplet	*
!	!LO:TUP:b	!
4r	24dd/LL	.
.	24a/	.
.	24dd/	.
.	24a/	.
.	24dd/	.
.	24a/JJ	.
=35	=35	=35
*	*2\right	*
2.r	2.ddT\	<[
*clefF4	*	*
=36||	=36||	=36||
4B\: 4D\: 4GG:\	4bb\: 4gg\: 4dd\: 4g:\	f
4g\ 4B\	4bb\: 4gg\: 4dd\: 4g:\	.
4d\	4bb\: 4gg\: 4dd\: 4g:\	.
!!LO:LB:g=original
=37	=37	=37
!	!LO:N:n=1:vis=8	!
!	!LO:N:n=2:vis=8	!
4BB/ 4BBB/	8.bb\L 8.ff#\ 8.dd\ 8.f#\	.
.	16cc#X\Jk 16e#X\	.
4d\ 4B\ 4F#\	2bb\ 2ff#\ 2dd\ 2f#\	.
4d\ 4B\	.	.
=38	=38	=38
!	!LO:N:vis=8	!
4D/ 4DD/	8.bb\L 8.ff#\ 8.cc\ 8.f#\	.
.	16e#X\K	.
!	!LO:N:vis=8	!
4c\ 4D\	8.bb\ 8.ff#\ 8.cc\ 8.f#\	.
.	16e#\K	.
!	!LO:N:vis=8	!
4f#\ 4F#\	8.bb\ 8.ff#\ 8.cc\ 8.f#\	.
.	16d\Jk	.
=39	=39	=39
!	!LO:N:vis=8	!
4D\ 4GG\	8.gg\L 8.b\ 8.g\	.
.	16f#\Jk	.
(4B\ 4D\	(4gg\ 4b\ 4g\	.
8g\ 8B^^\)	8ggg\ 8bb\ 8gg^^\)	.
8r	8r	.
=40	=40	=40
4B\: 4D\: 4GG:\	4bb\: 4gg\: 4dd\: 4g:\	.
4g\ 4B\	4bb\: 4gg\: 4dd\: 4g:\	.
4d\	4bb\: 4gg\: 4dd\: 4g:\	.
=41	=41	=41
!	!LO:N:vis=8	!
4BB/ 4BBB/	8.bb\L 8.ff#\ 8.dd\ 8.f#\	.
.	16cc#X\Jk 16e#X\	.
!	!LO:TX:t=P:2\right:problem	!
4d\ 4B\ 4F#\	2bb\ 2ff#\ 2dd\ 2f#\	.
4d\ 4B\	.	.
=42	=42	=42
!	!LO:N:vis=8	!
4D/ 4DD/	8.bb\L 8.ff#\ 8.cc\ 8.f#\	.
.	16e#X\K	.
!	!LO:N:vis=8	!
4c\ 4D\	8.bb\ 8.ff#\ 8.cc\ 8.f#\	.
.	16e#\K	.
!	!LO:N:vis=8	!
4f#\ 4F#\	8.bb\ 8.ff#\ 8.cc\ 8.f#\	.
.	16d\Jk	.
=43	=43	=43
(4B\ 4D\ 4GG\	(4gg\ 4b\ 4g\	.
8g\ 8B^^\)	8ggg\ 8bb\ 8gg^^\)	.
8r	8r	.
4r	4r	.
!!LO:PB:g=original
=44	=44	=44
4d\: 4Fn\: 4BB-X:\	4ddd\: 4bb-X\: 4ffn\: 4b-X:\	pp
4fn\ 4B-X\	4ddd\: 4bb-\: 4ff\: 4b-:\	.
4d\ 4F\	4ddd\: 4bb-\: 4ff\: 4b-:\	.
=45	=45	=45
!	!LO:N:n=1:vis=8	!
!	!LO:N:n=2:vis=8	!
4Fn\ 4AA\ 4DD\	8.ddd\L 8.aa\ 8.ffn\ 8.a\	.
.	16ee\Jk 16g#X\	.
*	*2\left	*
4fn\ 4A\	2ddd\ 2aa\ 2ff\ 2a\	.
4d\ 4F\	.	.
=46	=46	=46
!	!LO:N:n=1:vis=8	!
!	!LO:N:n=2:vis=8	!
4A\ 4E-X\ 4FFn\	8.ddd\L 8.aa\ 8.ee-X\ 8.a\	.
.	16g#X\Jk	.
!	!LO:N:vis=8	!
4fn\ 4A\	8.ddd\L 8.aa\ 8.ee-\ 8.a\	.
.	16g#\Jk	.
!	!LO:N:vis=8	!
4e-X\ 4Fn\	8.ddd\L 8.aa\ 8.ee-\ 8.a\	.
.	16fn\Jk	.
=47	=47	=47
4Fn\ 4BB-X\	8.bb-X\L 8.dd\ 8.b-X\	.
.	16a\Jk	.
(4d\ 4F\	(4bb-\ 4dd\ 4b-\	.
8b-X\ 8d\)	8bbb-X\ 8ddd\ 8bb-\)	.
8r	8r	.
=48	=48	=48
4d\ 4Fn\ 4BB-X\	4ddd\ 4bb-X\ 4ffn\ 4b-X\	.
4fn\ 4B-X\	4ddd\ 4bb-\ 4ff\ 4b-\	.
4d\ 4F\	4ddd\ 4bb-\ 4ff\ 4b-\	.
=49	=49	=49
!	!LO:SIC:v:n=3:s=8.ffn	!
!	!LO:N:n=1:vis=8	!
!	!LO:N:n=2:vis=8	!
4Fn\ 4AA\ 4DD\	8.ddd\L 8.aa\ 8.ff#\ 8.a\	.
.	16ee\Jk 16g#X\	.
!	!LO:SIC:v:n=3:s=2ffn	!
4fn\ 4A\	2ddd\ 2aa\ 2ff#\ 2a\	.
4d\ 4F\	.	.
=50	=50	=50
!	!LO:N:vis=8	!
4A\ 4E-X\ 4FFn\	8.ddd\L 8.aa\ 8.ee-X\ 8.a\	.
.	16g#X\K	.
!	!LO:N:vis=8	!
4fn\ 4A\	8.ddd\ 8.aa\ 8.ee-\ 8.a\	.
.	16g#\K	.
!	!LO:N:vis=8	!
4e-X\ 4Fn\	8.ddd\ 8.aa\ 8.ee-\ 8.a\	.
!	!LO:SIC:v:s=16fn	!
.	16f#\Jk	.
!!LO:LB:g=original
=51	=51	=51
4Fn\ 4BB-X\	(4bb-X\ 4dd\ 4b-X\	.
8b-X\ 8d\	8bbb-X\ 8ddd\ 8bb-X\)	.
8r	8r	.
4r	4r	.
=52:|!	=52:|!	=52:|!
*>B	*>B	*
!	!LO:TX:b:i:t=marcato il thèma	!
8.B-X\L 8.D\ 8.GG\	16ddd\LL	p
.	16bbb-X\	.
.	16ddd\	.
16c#X\Jk	16bb-X\	.
4d\ 4B-\ 4G\	16dd\	.
.	16bb-\	.
.	16dd\	.
.	16b-X\	.
4d\ 4B-\ 4G\	16dd\	.
.	16bb-\	.
.	16dd\	.
.	16b-\JJ	.
=53	=53	=53
8.A\L 8.D\ 8.FF#X\	16ddd\LL	.
.	16aaa\	.
.	16ddd\	.
16c#X\Jk	16aa\	.
4d\ 4A\ 4F#\	16dd\	.
.	16aa\	.
.	16dd\	.
.	16a\	.
4d\ 4A\ 4F#\	16dd\	.
.	16aa\	.
.	16dd\	.
.	16a\JJ	.
=54	=54	=54
!	!LO:TX:b:t=cresc.:ext=ut:problem=dynamics with extention lines	!LO:HP:t=cresc.
8.G\L 8.D\ 8.EE-X\	16dd\LL	<
.	16gg\	.
.	16dd\	.
16F#\Jk	16g\JJ	.
!	!LO:TX:t=P:problem=mixed beam	!
8.G\L	16d\LL	.
.	16g\	.
.	16d\	.
16A\Jk	16A</JJ	[
!	!LO:TX:t=P:problem=mixed beam	!
8B-X\L	16B-X</LL	.
.	16g\	.
8c#X\J	16c#X</	.
.	16G\JJ	.
=55	=55	=55
*	*^	*
!LO:N:vis=8	!LO:TX:t=P:problem=mixed beam	!	!
8.d\L 8.F#\ 8.AA\ 8.DD\	16d</LL	4ryy	.
.	16f#\	.	.
.	16d\	.	.
16F#\Jk	16F#</JJ	.	.
4D\	16D</LL	4rg	>
.	16A</	.	.
.	16F#</	.	.
.	16AA</JJ	.	.
4D\	16D</LL	4rg	.
.	16F#</	.	.
.	16AA</	.	.
.	16DD</JJ	.	.
*	*v	*v	*
!!LO:LB:g=original
=56	=56	=56
8.B-X\L 8.D\ 8.GG\	16ddd\LL	] p
.	16bbb-X\	.
.	16ddd\	.
16c#X\Jk	16bb-X\	.
4d\ 4B-\ 4G\	16dd\	.
.	16bb-\	.
.	16dd\	.
.	16b-X\	.
4d\ 4B-\ 4G\	16dd\	.
.	16bb-\	.
.	16dd\	.
.	16b-\JJ	.
=57	=57	=57
8.A\L 8.D\ 8.FF#\	16ddd\LL	.
.	16aaa\	.
.	16ddd\	.
16c#X\Jk	16aa\	.
4d\ 4A\ 4F#\	16dd\	.
.	16aa\	.
.	16dd\	.
.	16a\	.
4d\ 4A\ 4F#\	16dd\	.
.	16aa\	.
.	16dd\	.
.	16a\JJ	.
=58	=58	=58
!LO:N:n=2:vis=8	!	!
!LO:N:n=3:vis=8	!	!
8.G\L 8.D\ 8.EE-X\	16dd\LL	<
.	16gg\	.
.	16dd\	.
16F#\Jk	16g\JJ	.
!	!LO:TX:t=P:problem=mixed beam	!
8.G\L	16d\LL	.
.	16g\	[
.	16d\	.
16A\Jk	16A</JJ	.
!	!LO:TX:t=P:problem=mixed beam	!
8B-X\L	16B-X</LL	.
.	16g\	.
8c#X\J	16c#X</	.
.	16G\JJ	.
=59	=59	=59
*	*^	*
!	!LO:TX:t=P:problem=mixed beam	!	!
4F#\: 4AA\: 4DD:\	16d</LL	8.d<\L	.
.	16f#\	.	.
.	16d\	.	.
.	16F#</JJ	16F#<\Jk	.
4D\	16D</LL	4rg	>
.	16A</	.	.
.	16F#</	.	.
.	16AA</JJ	.	.
4D\	16D</LL	4rg	.
.	16F#</	.	.
.	16AA</	.	.
.	16DD</JJ	.	.
*	*v	*v	*
=60	=60	=60
*	*8va	*
8.d\L 8.Fn\ 8.BB-X\	16fffn\LL	] pp
.	16dddd\	.
.	16fff\	.
16e\Jk	16ddd\	.
*	*X8va	*
!	!LO:TX:a:i:t=loco	!
4fn\ 4d\ 4B-X\	16ffn\	.
.	16ddd\	.
.	16ff\	.
.	16dd\	.
4f\ 4d\ 4B-\	16ff\	.
.	16ddd\	.
.	16ff\	.
.	16dd\JJ	.
!!LO:LB:g=original
=61	=61	=61
*	*8va	*
8.A\L 8.C\ 8.FFn\	16fffn\LL	.
.	16cccc\	.
.	16fff\	.
16e\Jk	16ccc\	.
*	*X8va	*
!	!LO:TX:a:i:t=loco	!
4fn\ 4c\ 4A\	16ff\	.
.	16ccc\	.
.	16ff\	.
.	16cc\	.
4f\ 4c\ 4A\	16ff\	.
.	16ccc\	.
.	16ff\	.
.	16cc\JJ	.
=62	=62	=62
8.B-X\L 8.E\ 8.GG-X\	16ee\LL	.
!	!LO:TX:b:t=cresc.:ext=ut:problem=dynamics with extention lines	!LO:HP:t=cresc.
.	16bb-X\	<
.	16ee\	.
16A\Jk	16b-X\JJ	.
!	!LO:TX:t=P:problem=mixed beam	!
8.B-\L	16e\LL	.
.	16b-\	.
.	16e\	[
16c\Jk	16c</JJ	.
!	!LO:TX:t=P:problem=mixed beam	!
8d-X\L	16d-X</LL	.
.	16b-\	.
8e\J	16e</	.
.	16B-X\JJ	.
=63	=63	=63
*	*^	*
!	!LO:TX:t=P:problem=mixed beam	!	!LO:DY:a
4A\: 4C\: 4FFn:\	16fn</LL	8.f<\L	f
.	16a\	.	.
.	16fn\	.	.
.	16A</JJ	16A<\Jk	.
4Fn\	16Fn</LL	4rg	>
.	16c</	.	.
.	16A</	.	.
.	16C</JJ	.	.
4F\	16F</LL	4rg	]
.	16A</	.	.
.	16C</	.	.
.	16FFn</JJ	.	.
*	*v	*v	*
=64	=64	=64
*	*8va	*
!LO:N:n=2:vis=8	!	!
!LO:N:n=3:vis=8	!	!
8.d\L 8.Fn\ 8.BB-X\	16fffn\LL	.
.	16dddd\	.
.	16fff\	.
16e\Jk	16ddd\	.
*	*X8va	*
!	!LO:TX:a:i:t=lo	!
4fn\ 4d\ 4B-X\	16ff\	.
.	16ddd\	.
.	16ff\	.
.	16dd\	.
4f\ 4d\ 4B-\	16ff\	.
.	16ddd\	.
.	16ff\	.
.	16dd\JJ	.
=65	=65	=65
*	*8va	*
!	!LO:SIC:v:s=16ffn	!
8.A\L 8.C\ 8.FFn\	16fff#\LL	.
.	16cccc\	.
!	!LO:SIC:v:s=16ffn	!
.	16fff#\	.
16e\Jk	16ccc\	.
*	*X8va	*
!	!LO:SIC:v:s=16ffn	!
!	!LO:TX:a:i:t=loc	!
4fn\ 4c\ 4A\	16ff#\	.
.	16ccc\	.
!	!LO:SIC:v:s=16ffn	!
.	16ff#\	.
.	16cc\	.
4e-X\ 4c\ 4F#X\	16ee-X\	.
.	16ccc\	.
.	16ee-\	.
.	16cc\JJ	.
!!LO:LB:g=original
=66	=66	=66
*	*^	*
!LO:SIC:v:n=3:s=8.GG-	!LO:TX:b:i:t=poco rit.	!	!
8.B-X\L 8.D\ 8.GG\	16dd\LL	2ryy	.
.	16bb-X\	.	.
.	16dd\	.	.
16A\Jk	16b-X\JJ	.	.
!	!LO:TX:t=P:problem=mixed beam	!	!
8.B-\L	16d\LL	.	.
.	16b-X\	.	.
.	16d\	.	.
16c\Jk	16c</JJ	.	.
!	!LO:TX:t=P:problem=mixed beam	!	!
4G\ 4E-X\ 4AA\	16c#X</LL	8.c#<\L	.
.	16a\	.	.
.	16c#X\	.	.
.	16A</JJ	16A<\Jk	.
=67	=67	=67	=67
!	!	!LO:N:vis=8	!
!	!LO:TX:t=P:problem=mixed beam	!	!
8.F#\L 8.DD\	16d/LL	8.d\L	.
.	16a/	.	.
.	16A/	.	.
!	!LO:TX:b:i:t=à tempo	!	!
16G#X\Jk	16d/	16G#X</Jk	.
*2\right	*	*	*
2A\	16a/	2ryy	.
.	16dd/	.	.
.	16d/	.	.
.	16a/	.	.
.	16dd/	.	.
.	16aa/	.	.
.	16a/	.	.
.	16dd/JJ	.	.
*	*v	*v	*
=68	=68	=68
!	!LO:TX:a:i:t=non legato.	!LO:DY:rj
8.c#X\L 8.G\ 8.AA\	16cc#X\LL	p
!	!LO:TX:b:i:t=con eleganza	!
.	16aa\	.
.	16g\	.
16B#X\Jk	16cc#\	.
4c#\	16cc#\	.
.	16bb-X\	.
.	16g\	.
.	16cc#\	.
4c#\ 4G\ 4AA\	16cc#\	.
.	16aa\	.
.	16g\	.
.	16cc#\JJ	.
=69	=69	=69
8.F#\L 8.AA\ 8.DD\	16dd\LL	.
.	16aa\	.
.	16f#\	.
16c#X\Jk	16dd\	.
4d\	16aa\	.
.	16ddd\	.
.	16dd\	.
.	16aa\	.
4d\ 4F#\ 4D\	16ddd\	.
.	16aaa\	.
.	16aa\	.
.	16ddd\JJ	.
=70	=70	=70
8.c#X\L 8.G\ 8.AA\	16ccc#X\LL	.
.	16aaa\	.
.	16aa\	.
16g#X\Jk	16ccc#\	.
4a\	16aa\	.
.	16ccc#\	.
.	16cc#X\	.
.	16aa\	.
4r	16cc#\	.
.	16aa\	.
.	16a\	.
.	16cc#\JJ	.
!!LO:LB:g=original
=71	=71	=71
8.F#\L 8.DD\	16dd\LL	.
.	16aa\	.
.	16a\	.
16G#X\Jk	16dd\	.
4A\	16a\	.
.	16dd\	.
.	16d\	.
.	16a\	.
4r	16d\	.
.	16a\	.
.	16A\	.
.	16d\JJ	.
=72	=72	=72
8.c#X\L 8.G\ 8.AA\	16cc#X\LL	.
.	16aa\	.
.	16g\	.
16B#X\Jk	16cc#\	.
4c#\	16cc#\	.
.	16bb-X\	.
.	16g\	.
.	16cc#\	.
4c#\ 4G\ 4AA\	16cc#\	.
.	16aa\	.
.	16g\	.
.	16cc#\JJ	.
=73	=73	=73
8.F#\L 8.AA\ 8.DD\	16dd\LL	.
.	16aa\	.
.	16f#\	.
16c#X\Jk	16dd\	.
4d\	16aa\	.
.	16ddd\	.
.	16dd\	.
.	16aa\	.
4d\ 4F#\ 4D\	16ddd\	.
.	16aaa\	.
.	16aa\	.
.	16ddd\JJ	.
=74	=74	=74
8.c#X\L 8.G\ 8.AA\	16ccc#X\LL	.
.	16aaa\	.
.	16aa\	.
16g#X\Jk	16ccc#\	.
4a\	16aa\	.
.	16ccc#\	.
.	16cc#X\	.
.	16aa\	.
4r	16cc#\	.
.	16aa\	.
.	16a\	.
.	16cc#\JJ	.
=75	=75	=75
8.F#\L 8.DD\	16dd\LL	.
.	16aa\	.
.	16a\	.
16c#X\Jk	16dd\	.
4d\	16a\	.
.	16dd\	.
.	16d\	.
.	16a\	.
!	!	!LO:HP:a
4r	16d\	<
.	16a\	.
.	16A\	.
.	16d\JJ	.
!!LO:LB:g=original
=76	=76	=76
!	!LO:TX:b:i:t=molto	!
16A\LL	4r	<
16d\	.	.
16D\	.	.
16A\	.	.
16D\	2r	.
16A\	.	.
16AA\	.	.
16D\	.	.
16AA\	.	.
16D\	.	.
16DD\	.	.
16AA\JJ	.	[[
=77	=77	=77
8.B-X\L 8.D\ 8.GG\	16ddd\LL	ff
.	16bbb-X\	.
.	16ddd\	.
16c#X\Jk	16bb-X\	.
4d\ 4B-\ 4G\	16dd\	.
.	16bb-\	.
.	16dd\	.
.	16b-X\	.
4d\ 4B-\ 4G\	16dd\	.
.	16bb-\	.
.	16dd\	.
.	16b-\JJ	.
=78	=78	=78
8.A\L 8.D\ 8.FFn\	16ddd\LL	.
.	16aaa\	.
.	16ddd\	.
16c#X\Jk	16aa\	.
4d\ 4A\ 4Fn\	16dd\	.
.	16aa\	.
.	16dd\	.
.	16a\	.
4d\ 4A\ 4F\	16dd\	.
.	16aa\	.
.	16dd\	.
.	16a\JJ	.
=79	=79	=79
8.G\L 8.D\ 8.EE-X\	16dd\LL	.
.	16gg\	.
.	16dd\	.
16F#\Jk	16g\JJ	.
!LO:N:vi=8	!LO:TX:t=P:problem=mixed beam	!
8.G\L	16d\LL	.
.	16g\	.
.	16d\	.
16A\Jk	16A</JJ	.
!	!LO:TX:t=P:problem=mixed beam	!
8B-X\L	16B-X</LL	.
.	16g\	.
8c#X\J	16c#<X/	.
.	16G\JJ	.
=80	=80	=80
!LO:N:vis=8	!LO:TX:t=P:problem=mixed beam	!
8.d\L 8.F#\ 8.AA\ 8.DD\	16d</LL	.
.	16f#\	.
.	16d\	.
16F#\Jk	16F#</JJ	.
4D\	16D</LL	.
.	16A</	.
.	16F#</	.
.	16AA</JJ	.
4D\	16D</LL	.
.	16F#</	.
.	16AA</	.
.	16DD</JJ	.
!!LO:PB:g=original
=81	=81	=81
8.B-X\L 8.D\ 8.GG\	16ddd\LL	ff
.	16bbb-X\	.
.	16ddd\	.
!	!LO:SIC:v:s=16bb-	!
16c#X\Jk	16bb\	.
4d\ 4B-\ 4G\	16dd\	.
!	!LO:SIC:v:s=16bb-	!
.	16bb\	.
.	16dd\	.
.	16b-X\	.
4d\ 4B-\ 4G\	16dd\	.
!	!LO:SIC:v:s=16bb-	!
.	16bb\	.
.	16dd\	.
.	16b-\JJ	.
=82	=82	=82
8.A\L 8.D\ 8.FFn\	16ddd\LL	.
.	16aaa\	.
.	16ddd\	.
16c#X\Jk	16aa\	.
4d\ 4A\ 4Fn\	16dd\	.
.	16aa\	.
.	16dd\	.
.	16a\	.
4d\ 4A\ 4F\	16dd\	.
.	16aa\	.
.	16dd\	.
.	16a\JJ	.
=83	=83	=83
8.G\L 8.D\ 8.EE-X\	16dd\LL	.
.	16gg\	.
.	16dd\	.
16F#\Jk	16g\JJ	.
!LO:N:vis=8	!LO:TX:t=P:problem=mixed beam	!
8.G\L	16d\LL	.
.	16g\	.
.	16d\	.
16A\Jk	16A</JJ	.
!	!LO:TX:t=P:problem=mixed beam	!
8B-X\L	16B-X</LL	.
.	16g\	.
8c#X\J	16c#<X/	.
.	16G\JJ	.
=84	=84	=84
*	*^	*
!LO:N:n=2:vis=8	!	!	!
!LO:N:n=3:vis=8	!	!	!
!LO:N:n=4:vis=8	!LO:TX:t=P:problem=mixed beam	!	!
8.d\L 8.F#\ 8.AA\ 8.DD\	16d</LL	4ryy	.
.	16f#\	.	.
.	16d\	.	.
16F#\Jk	16F#</JJ	.	.
4D\	16D</LL	4rg	.
.	16A</	.	.
.	16F#</	.	.
.	16AA</JJ	.	.
4D\	16D</LL	4rg	.
.	16F#</	.	.
.	16AA</	.	.
.	16DD</JJ	.	.
*	*v	*v	*
=85	=85	=85
!LO:N:n=2:vis=8	!	!
!LO:N:n=3:vis=8	!	!
8.d\L 8.Fn\ 8.BB-X\	16fffn\LL	pp
.	16dddd\	.
.	16fff\	.
16e\Jk	16ddd\	.
4fn\ 4d\ 4B-X\	16ffn\	.
.	16ddd\	.
.	16ff\	.
.	16dd\	.
4f\ 4d\ 4B-\	16ff\	.
.	16ddd\	.
.	16ff\	.
.	16dd\JJ	.
!!LO:LB:g=original
=86	=86	=86
*	*8va	*
8.A\L 8.C\ 8.FFn\	16fffn\LL	.
.	16cccc\	.
.	16fff\	.
16e\Jk	16ccc\	.
*	*X8va	*
!	!LO:TX:a:i:t=loc	!
4fn\ 4c\ 4A\	16ff\	.
.	16ccc\	.
.	16ff\	.
.	16cc\	.
4f\ 4c\ 4A\	16ff\	.
.	16ccc\	.
.	16ff\	.
.	16cc\JJ	.
=87	=87	=87
!LO:N:vis=8	!	!
8.B-X\L 8.E\ 8.GG-X\	16ee\LL	.
.	16bb-X\	.
.	16ee\	.
!	!	!LO:HP:a
16A\Jk	16b-X\JJ	<
!LO:N:vis=8	!LO:TX:t=P:problem=mixed beam	!
8.B-\L	16e\LL	.
.	16b-\	.
.	16e\	.
16c\Jk	16c</JJ	.
!	!LO:TX:t=P:problem=mixed beam	!
8d-X\L	16d-X</LL	.
.	16b-\	.
8e\J	16e</	.
.	16B-X\JJ	[[
=88	=88	=88
*	*^	*
!LO:N:vis=8	!LO:TX:t=P:problem=mixed beam	!	!LO:HP:a
8.fn\L 8.A\ 8.C\ 8.FFn\	16fn</LL	4ryy	>
.	16a\	.	.
.	16f\	.	.
16A\Jk	16A</JJ	.	.
4Fn\	16Fn</LL	4rg	.
.	16c</	.	]
.	16A</	.	.
.	16C</JJ	.	.
4F\	16F</LL	4rg	.
.	16A</	.	.
.	16C</	.	.
.	16FFn</JJ	.	.
*	*v	*v	*
=89	=89	=89
*	*8va	*
!LO:N:vis=8	!	!
8.d\L 8.Fn\ 8.BB-X\	16fffn\LL	.
.	16dddd\	.
.	16fff\	.
16e\Jk	16ddd\	.
*	*X8va	*
!	!LO:TX:a:i:t=loc	!
4fn\ 4d\ 4B-X\	16ff\	.
.	16ddd\	.
.	16ff\	.
.	16dd\	.
4f\ 4d\ 4B-\	16ff\	.
.	16ddd\	.
.	16ff\	.
.	16dd\JJ	.
=90	=90	=90
*	*8va	*
!LO:N:vis=8	!	!
8.A\L 8.C\ 8.FFn\	16fffn\LL	.
.	16cccc\	.
.	16fff\	.
16e\Jk	16ccc\	.
*	*X8va	*
!	!LO:TX:a:i:t=lo.	!
4fn\ 4c\ 4A\	16ff\	.
.	16ccc\	.
.	16ff\	.
.	16cc\	.
4e-X\ 4c\ 4F#X\	16ee-X\	.
.	16ccc\	.
.	16ee-\	.
.	16cc\JJ	.
!!LO:PB:g=original
=91	=91	=91
!LO:N:vis=8	!	!
8.B-X\L 8.D\ 8.GG\	16dd\LL	.
.	16bb-X\	.
.	16dd\	.
16A\Jk	16b-X\JJ	.
!LO:N:vis=8	!LO:TX:t=P:problem=mixed beam	!
8.B-\L	16d\LL	.
.	16b-\	.
.	16d\	.
16c#X\Jk	16c#X</JJ	.
!LO:N:vis=8	!LO:TX:t=P:problem=mixed beam	!
8.d\L 8.F#\ 8.DD\	16d</LL	.
.	16a\	.
.	16d\	.
16A\Jk	16A</JJ	.
=92	=92	=92
4EE-X/	16g\LL 16G\	<
.	16A\	.
.	16B-X\	.
.	16c#X\	.
4c#X\ 4G\	16g\	.
.	16a\	.
.	16b-X\	.
.	16cc#X\	.
4E-X\	16gg\	.
.	16aa\	.
.	16bb-X\	.
.	16ccc#X\JJ	[[
=93	=93	=93
8.G\L 8.BB-X\ 8.DD\	16ddd\LL	.
.	16bbb-X\	p
.	16ddd\	.
16c#X\Jk	16bb-X\	.
4d\ 4B-X\ 4G\	16dd\	.
.	16bb-\	.
.	16dd\	.
.	16b-X\	.
4d\ 4B-\ 4G\	16dd\	.
.	16bb-\	.
.	16dd\	.
.	16b-\JJ	.
=94	=94	=94
8.F#\L 8.AA\ 8.DD\	16ddd\LL	.
.	16aaa\	.
.	16ddd\	.
16c#X\Jk	16aa\	.
4d\ 4A\ 4F#\	16dd\	.
.	16aa\	.
.	16dd\	.
.	16a\	.
4d\ 4A\ 4F#\	16dd\	.
.	16aa\	.
.	16dd\	.
.	16a\JJ	.
=95	=95	=95
!LO:N:vis=8	!	!
8.B-X\L 8.D\ 8.GG\	16dd\LL	.
.	16gg\	.
.	16dd\	.
16c#X\Jk	16g\	.
4d\	16g\	.
.	16dd\	.
.	16g\	.
.	16d\	.
4r	16d\	.
.	16g\	.
.	16d\	.
.	16G\JJ	.
!!LO:LB:g=original
=96	=96	=96
!LO:N:n=2:vis=8	!	!
!LO:N:n=3:vis=8	!	!
8.B-X\L 8.D\ 8.GG\	16dd\LL	.
.	16gg\	.
.	16dd\	.
16c#X\Jk	16g\	.
4d\	16g\	.
.	16dd\	.
.	16g\	.
!	!	!LO:HP:a
.	16d\	<
4r	16d\	.
.	16g\	.
.	16d\	.
.	16G\JJ	.
=97	=97	=97
*	*	*^
8.Bn\L 8.D\ 8.GG\	16dd\LL	.	.
.	16gg\	.	.
!	!	!LO:HP:a	!
.	16dd\	<	.
16c#X\Jk	16g\	.	.
4d\	16g\	.	.
.	16dd\	.	.
.	16g\	.	.
.	16d\JJ	.	.
16d\LL	4r	.	.
16g\	.	.	.
!	!LO:TX:b:t=cresc.:ext=ut:problem=dynamics with extention lines	!	!LO:DY:t=cresc.
16G\	.	.	<
16d\JJ	.	.	.
=98	=98	=98	=98
16G\LL	4r	.	.
16d\	.	.	.
16D\	.	.	.
16G\	.	.	.
16D\	2r	.	.
16G\	.	.	.
16GG\	.	.	.
16D\	.	.	.
16GG\	.	.	.
16D\	.	.	.
16DD\	.	.	[
16GG\JJ	.	[	.
*	*	*v	*v
=99||	=99||	=99||
4DD/ 4GGG/	4bb\: 4gg\: 4dd\: 4g:\	ff
!	!LO:TX:b:i:t=con brio.	!
4g\ 4B\	4bb\: 4gg\: 4dd\: 4g:\	.
4d\	4bb\: 4gg\: 4dd\: 4g:\	.
=100	=100	=100
!	!LO:N:n=1:vis=8	!
!	!LO:N:n=2:vis=8	!
4BB/ 4BBB/	8.bb\L 8.ff#\ 8.dd\ 8.f#\	.
.	16cc#X\Jk 16e#X\	.
4d\ 4B\ 4F#\	2bb\ 2ff#\ 2dd\ 2f#\	.
4d\ 4B\	.	.
=101	=101	=101
!	!LO:N:n=1:vis=8	!
!	!LO:N:n=2:vis=8	!
!	!LO:N:n=3:vis=8	!
4D/ 4DD/	8.bb\L 8.ff#\ 8.cc\ 8.f#\	.
.	16e#X\K	.
!	!LO:N:n=1:vis=8	!
!	!LO:N:n=2:vis=8	!
!	!LO:N:n=3:vis=8	!
4c\ 4D\	8.bb\ 8.ff#\ 8.cc\ 8.f#\	.
!	!LO:N:vis=16.	!
.	16e#\K	.
!	!LO:N:n=1:vis=8	!
!	!LO:N:n=2:vis=8	!
!	!LO:N:n=3:vis=8	!
4f#\ 4F#\	8.bb\ 8.ff#\ 8.cc\ 8.f#\	.
.	16d\Jk	.
!!LO:LB:g=original
=102	=102	=102
!	!LO:N:n=1:vis=8	!
!	!LO:N:n=2:vis=8	!
4D\ 4GG\	8.gg\L 8.b\ 8.g\	.
.	16f#\Jk	.
!	!LO:TX:t=P:problem=wykreślone f#	!
(4B\ 4D\	(4gg\ 4b\ 4g\	.
8g\ 8B\)	8ggg\ 8bb\ 8gg\)	.
8r	8r	.
=103	=103	=103
4B\ 4D\ 4GG\	4bb\ 4gg\ 4dd\ 4g\	.
4g\ 4B\	4bb\ 4gg\ 4dd\ 4g\	.
4d\	4bb\ 4gg\ 4dd\ 4g\	.
=104	=104	=104
4BB/ 4BBB/	8.bb\L 8.ff#\ 8.dd\ 8.f#\	.
.	16cc#X\Jk 16e#X\	.
4d\ 4B\ 4F#\	2bb\ 2ff#\ 2dd\ 2f#\	.
4d\ 4B\	.	.
=105	=105	=105
!	!LO:N:vis=8	!
4D/ 4DD/	8.bb\L 8.ff#\ 8.cc\ 8.f#\	.
.	16e#X\K	.
!	!LO:N:vis=8	!
4c\ 4D\	8.bb\ 8.ff#\ 8.cc\ 8.f#\	.
.	16e#\K	.
!	!LO:N:vis=8	!
4f#\ 4F#\	8.bb\ 8.ff#\ 8.cc\ 8.f#\	.
.	16d\Jk	.
=106	=106	=106
(4B\ 4D\ 4GG\	(4gg\ 4b\ 4g\	.
8g\ 8B\)	8ggg\ 8bb\ 8gg\)	.
8ryy	8r	.
4r	4r	.
=107	=107	=107
4d\ 4Fn\ 4BB-X\	4ddd\ 4bb-X\ 4ffn\ 4b-X\	pp
4fn\ 4B-X\	4ddd\ 4bb-\ 4ff\ 4b-\	.
4d\ 4Fn\	4ddd\ 4bb-\ 4ff\ 4b-\	.
=108	=108	=108
!	!LO:N:vis=8	!
4Fn\ 4AA\ 4DD\	8.ddd\L 8.aa\ 8.ffn\ 8.a\	.
.	16ee\Jk 16g#X\	.
4fn\ 4A\	2ddd\ 2aa\ 2ff\ 2a\	.
4d\ 4Fn\	.	.
!!LO:LB:g=original
=109	=109	=109
!	!LO:N:n=1:vis=8	!
!	!LO:N:n=2:vis=8	!
!	!LO:N:n=3:vis=8	!
4A\ 4E-X\ 4FFn\	8.ddd\L 8.aa\ 8.ee-X\ 8.a\	.
.	16g#X\K	.
!	!LO:N:n=1:vis=8	!
!	!LO:N:n=2:vis=8	!
!	!LO:N:n=3:vis=8	!
4fn\ 4A\	8.ddd\ 8.aa\ 8.ee-\ 8.a\	.
.	16g#\K	.
!	!LO:N:n=1:vis=8	!
!	!LO:N:n=2:vis=8	!
!	!LO:N:n=3:vis=8	!
4e-X\ 4Fn\	8.ddd\ 8.aa\ 8.ee-\ 8.a\	.
!	!LO:SIC:v:s=16fn	!
.	16f#\Jk	.
=110	=110	=110
!	!LO:N:n=1:vis=8	!
!	!LO:N:n=2:vis=8	!
4Fn\ 4BB-X\	8.bb-X\L 8.dd\ 8.b-X\	.
.	16a\Jk	.
4d\ 4F\	(4bb-\ 4dd\ 4b-\	.
8b-X\ 8d\	8bbb-X\ 8ddd\ 8bb-X\)	.
8r	8r	.
=111	=111	=111
4d\ 4Fn\ 4BB-X\	4ddd\ 4bb-X\ 4ffn\ 4b-X\	.
!LO:TX:t=P:problem=znak f- poprawiony na fn	!	!
4fn\ 4B-X\	4ddd\ 4bb-\ 4ff\ 4b-\	.
4d\ 4Fn\	4ddd\ 4bb-\ 4ff\ 4b-\	.
=112	=112	=112
!	!LO:N:n=1:vis=8	!
!	!LO:N:n=2:vis=8	!
4Fn\ 4AA\ 4DD\	8.ddd\L 8.aa\ 8.ffn\ 8.a\	.
.	16ee\Jk 16g#X\	.
4fn\ 4A\	2ddd\ 2aa\ 2ff\ 2a\	.
4d\ 4Fn\	.	.
=113	=113	=113
!	!LO:N:n=1:vis=8	!
!	!LO:N:n=2:vis=8	!
!	!LO:N:n=3:vis=8	!
4A\ 4E-X\ 4FFn\	8.ddd\L 8.aa\ 8.ee-X\ 8.a\	.
.	16g#X\K	.
!	!LO:N:n=1:vis=8	!
!	!LO:N:n=2:vis=8	!
!	!LO:N:n=3:vis=8	!
4fn\ 4A\	8.ddd\ 8.aa\ 8.ee-\ 8.a\	.
.	16g#\K	.
!	!LO:N:n=1:vis=8	!
!	!LO:N:n=2:vis=8	!
!	!LO:N:n=3:vis=8	!
4e-X\ 4Fn\	8.ddd\ 8.aa\ 8.ee-\ 8.a\	.
!	!LO:SIC:v:s=16fn	!
.	16f#\Jk	.
=114	=114	=114
4Fn\ 4BB-X\	(4bb-X\ 4dd\ 4b-X\	.
8b-X\ 8d\	8bbb-X\ 8ddd\ 8bb-\)	.
4r	4r	.
!	!LO:TX:t=P:problem=klucz po podwójnej kresce taktowej	!
8r	8r	.
*	*clefF4	*
!!LO:LB:g=original
=115||	=115||	=115||
!	!LO:TX:a:i:t=Cantando.	!LO:DY:t=mezzo forte.
4BB-X\	8.B-X\L	mf
.	16A\Jk	.
*clefG2	*	*
4b-X/ 4fn/ 4d/	4B-\	.
4b-/ 4f/ 4d/	4Fn\	.
*clefF4	*	*
=116	=116	=116
4EE-X/	8.B-X\L	.
.	16A\Jk	.
*clefG2	*	*
4b-X/ 4g/ 4e-X/	4B-\	.
4b-/ 4g/ 4e-/	4G\	.
*clefF4	*	*
=117	=117	=117
!	!LO:TX:t=P:problem=klamra łukowa	!
!	!LO:TUP:a	!
4FFn\	12Fn\L	.
.	12G\	.
.	12F\J	.
*clefG2	*	*
4a/ 4e-X/ 4A/	4E-X\	.
4a/ 4e-/ 4A/	4E-\	.
*clefF4	*	*
=118	=118	=118
4BB-X\	8.D\L	.
.	16E-X\Jk	.
*clefG2	*	*
4b-X/ 4d/ 4B-X/	4En\	.
4b-/ 4d/ 4B-/	4Fn\	.
*clefF4	*	*
=119	=119	=119
4BB-X\	8.B-X\L	.
.	16A\Jk	.
*clefG2	*	*
4b-X/ 4fn/ 4d/	4B-\	.
4b-/ 4f/ 4d/	4Fn\	.
*clefF4	*	*
=120	=120	=120
4EE-X/	8.B-X\L	.
!	!LO:TX:b:i:t=espress.	!
.	16A\Jk	.
*clefG2	*	*
4b-X/ 4g/ 4e-X/	4B-\	.
4b-/ 4g/ 4e-/	4G\	.
*clefF4	*	*
=121	=121	=121
!	!LO:TX:t=P:problem=klamra łukowa	!
!	!LO:TUP:a	!
4FFn\	12Fn\L	.
.	12G\	.
.	12F\J	.
*clefG2	*	*
!	!LO:SIC:v:s=8E-	!
4a\ 4fn\ 4e-X\	8E\L	.
.	8Fn\	.
.	32qqF/	.
!LO:TX:t=P:problem=brak klucza basowego	!	!
4a\ 4f#X\ 4e-\	8d\	.
.	8c\J	.
*clefF4	*	*
!!LO:PB:g=original
=122	=122	=122
!	!LO:TX:t=P:problem=klucz wiolinowy poprawiony na basowy	!
4BB-X\	4B-X\	.
*clefG2	*	*
4b-X/ 4fn/ 4d/	4B-\	.
4r	4r	.
*clefF4	*	*
=123	=123	=123
4DD/	8.d\L	.
!	!	!LO:DY:rj
.	16c#X\Jk	p
*clefG2	*	*
4dd/ 4a/ 4f#/	4d\	.
4dd/ 4a/ 4f#/	4A\	.
*clefF4	*	*
=124	=124	=124
4GG/	8.d\L	.
.	16c#X\Jk	.
*clefG2	*	*
4dd/ 4b/ 4g/	4d\	.
4dd/ 4b/ 4g/	4B\	.
*clefF4	*	*
=125	=125	=125
!	!LO:TX:t=P:problem=klamra łukowa	!
!	!LO:TUP:a	!
4AA\	12A\L	.
.	12B\	.
.	12A\J	.
*clefG2	*	*
4cc#X/ 4g/ 4c#X/	4G\	.
4cc#/ 4g/ 4c#/	4G\	.
*clefF4	*	*
=126	=126	=126
4DD/	8.F#\L	.
.	16G\Jk	.
*clefG2	*	*
4dd/ 4f#/ 4d/	4G#X\	.
4dd/ 4f#/ 4d/	4A\	.
*clefF4	*	*
=127	=127	=127
4D\	8.d\L	.
.	16c#X\Jk	.
*clefG2	*	*
!	!LO:TX:b:t=dim.:ext=ut:problem=dynamics with extention lines	!LO:DY:t=dim.
4dd/ 4a/ 4f#/	4d\	>
4dd/ 4a/ 4f#/	4A\	]]
*clefF4	*	*
=128	=128	=128
!	!LO:TX:b:i:t=e poco. rit.	!
4GG#X/	8.d\L	.
.	16c#X\Jk	.
*clefG2	*	*
4dd/ 4g#X/ 4e/	4d\	.
!LO:TX:t=P:problem=brak klucza na końcu systemu	!	!
4dd/ 4g#/ 4e/	4B\	.
*clefF4	*	*
!!LO:LB:g=original
=129	=129	=129
*	*clefF4	*
4AA/	8A\L	.
!	!LO:TX:t=P:problem=klamra łukowa	!
!	!LO:TUP:a	!
.	24A\L	.
.	24B\	.
.	24A\JJ	.
*clefG2	*	*
4dd/ 4a/ 4f#/	8G#X\L	.
.	8A\	.
!	!LO:TX:b:i:t=tempo rubato	!
.	32qqA/	.
4cc#X/ 4a/ 4g/	8f#\	.
.	8e\J	.
*clefF4	*	*
=130	=130	=130
4DD/	4.d\	pp
*clefG2	*	*
4dd/ 4a/ 4f#/	.	.
.	8A\	.
4r	16d\LL	.
.	16f#\	.
.	16a\	.
.	16A\JJ	.
*clefF4	*	*
=131	=131	=131
4DD/	4.d\	.
*clefG2	*	*
4dd/ 4a/ 4f#/	.	.
.	8A\	.
4r	16d\LL	.
.	16f#\	.
.	16a\	.
.	16A\JJ	.
*clefF4	*	*
=132	=132	=132
4DD/	4.d\	.
*clefG2	*Xtuplet	*
4aa\ 4dd\ 4f#\	.	.
*	*clefG2	*
.	24a/LL	.
!	!	!LO:DY:t=ppp.
.	24dd/	ppp
.	24a/JJ	.
!	!LO:TX:t=P:problem=klamra łukowa	!
4r	24dd/LL	.
.	24a/	.
.	24dd/	.
.	24a/	.
.	24dd/	.
.	24a/JJ	.
=133	=133	=133
*	*2\right	*
2r	2.ddTT\	<[
4r	.	.
*clefF4	*2\left	*
=134||	=134||	=134||
4B\: 4D\: 4GG:\	4bb\: 4gg\: 4dd\: 4g:\	f
4g\ 4B\	4bb\ 4gg\ 4dd\ 4g\	.
4d\	4bb\ 4gg\ 4dd\ 4g\	.
!!LO:LB:g=original
=135	=135	=135
!	!LO:N:n=1:vis=8	!
!	!LO:N:n=2:vis=8	!
4BB/ 4BBB/	8.bb\L 8.ff#\ 8.dd\ 8.f#\	.
.	16cc#X\Jk 16e#X\	.
4d\ 4B\ 4F#\	2bb\ 2ff#\ 2dd\ 2f#\	.
4d\ 4B\	.	.
=136	=136	=136
!	!LO:N:n=1:vis=8	!
!	!LO:N:n=2:vis=8	!
!	!LO:N:n=3:vis=8	!
4D/ 4DD/	8.bb\L 8.ff#\ 8.cc\ 8.f#\	.
.	16e#X\K	.
!	!LO:N:n=1:vis=8	!
!	!LO:N:n=2:vis=8	!
!	!LO:N:n=3:vis=8	!
4c\ 4D\	8.bb\ 8.ff#\ 8.cc\ 8.f#\	.
.	16e#\K	.
!	!LO:N:n=1:vis=8	!
!	!LO:N:n=2:vis=8	!
!	!LO:N:n=3:vis=8	!
4f#\ 4F#\	8.bb\ 8.ff#\ 8.cc\ 8.f#\	.
.	16d\Jk	.
=137	=137	=137
!	!LO:N:vis=8	!
4D\ 4GG\	8.gg\L 8.b\ 8.g\	.
.	16f#\Jk	.
(4B\ 4D\	(4gg\ 4b\ 4g\	.
8g\ 8B\)	8ggg\ 8bb\ 8gg\)	.
8r	8r	.
=138	=138	=138
4B\: 4D\: 4GG:\	4bb\: 4gg\: 4dd\: 4g:\	mf
4g\ 4B\	4bb\ 4gg\ 4dd\ 4g\	.
4d\	4bb\ 4gg\ 4dd\ 4g\	.
=139	=139	=139
!	!LO:N:n=1:vis=8	!
!	!LO:N:n=2:vis=8	!
4BB/ 4BBB/	8.bb\L 8.ff#\ 8.dd\ 8.f#\	.
.	16cc#X\Jk 16e#X\	.
!LO:TX:t=P:problem=usunięte B	!	!
4d\ 4F#\	2bb\ 2ff#\ 2dd\ 2f#\	.
4d\ 4B\	.	.
=140	=140	=140
4Fn\: 4AA\: 4DD:\	4aa\: 4ffn\: 4dd\: 4fn:\	p
4d\ 4F\	4aa\ 4ff\ 4dd\ 4f\	.
4d\ 4A\	4aa\ 4ff\ 4dd\ 4f\	.
=141	=141	=141
!	!LO:N:n=1:vis=8	!
!	!LO:N:n=2:vis=8	!
4AA/ 4AAA/	8.aa\L 8.ee\ 8.cc#X\ 8.e\	.
.	16b#X\Jk 16d#X\	.
!LO:TX:t=P:problem=usunięte A	!	!
4c#X\ 4E\	2aa\ 2ee\ 2cc#\ 2e\	.
4c#\ 4A\	.	.
!!LO:LB:g=original
=142	=142	=142
4E-X\: 4CC:\	4gg\: 4ee-X\: 4cc\: 4e-X:\	p
4c\ 4G\ 4E-\	4gg\ 4ee-\ 4cc\ 4e-\	.
4c\ 4G\	4gg\ 4ee-\ 4cc\ 4e-\	.
=143	=143	=143
4D\ 4DD\	8.dd\L 8.b\ 8.d\	.
.	16cc#X\Jk 16b\ 16c#X\	.
4B\ 4G\ 4D\	(4dd\ 4b\ 4d\	.
*clefG2	*	*
8b\ 8g\ 8d\	8ddd\ 8bb\ 8dd\)	sf
8r	8r	.
*clefF4	*	*
=144	=144	=144
*	*	*^
4D\ 4DD\	8.dd\L 8.a\ 8.d\	<	.
.	16cc#X\Jk 16a\ 16c#X\	.	.
4c\ 4F#\ 4D\	(4dd\ 4a\ 4d\	.	.
*clefG2	*	*	*
8cc\ 8f#\ 8d\	8ddd\ 8aa\ 8dd\)	.	sf
8r	8r	.	.
*clefF4	*	*	*
=145	=145	=145	=145
4GG\	8.gg\L 8.dd\ 8.g\	.	.
.	16ff#\Jk 16dd\ 16f#\	.	.
4B\ 4D\	(4gg\ 4dd\ 4g\	.	.
*clefG2	*	*	*
8b\ 8d\	8ggg\ 8ddd\ 8gg\)	[	sf
8r	8r	.	.
*clefF4	*	*	*
*	*	*v	*v
=146	=146	=146
4B\: 4D\: 4GG:\	4bb\: 4gg\: 4dd\: 4g:\	f
4g\ 4B\	4bb\ 4gg\ 4dd\ 4g\	.
4d\	4bb\ 4gg\ 4dd\ 4g\	.
=147	=147	=147
!	!LO:N:n=1:vis=8	!
!	!LO:N:n=2:vis=8	!
4BB/ 4BBB/	8.bb\L 8.ff#\ 8.dd#X\ 8.f#\	.
.	16cc##X\Jk 16e#X\	.
4d#X\ 4F#\	2bb\ 2ff#\ 2dd#\ 2f#\	.
4d#\ 4B\	.	.
!!LO:LB:g=original
=148	=148	=148
4Fn\: 4AA\: 4DD:\	4aa\: 4ffn\: 4dd\: 4fn:\	p
4d\ 4F\	4aa\ 4ff\ 4dd\ 4f\	.
4d\ 4A\	4aa\ 4ff\ 4dd\ 4f\	.
=149	=149	=149
4AA/ 4AAA/	8.aa\L 8.ee\ 8.cc#X\ 8.e\	.
.	16b#X\Jk 16d#X\	.
4c#X\ 4E\	2aa\ 2ee\ 2cc#\ 2e\	.
4c#\ 4A\	.	.
=150	=150	=150
4E-X\: 4CC:\	4gg\: 4ee-X\: 4ccn\: 4e-X:\	p
4c\ 4G\ 4E-\	4gg\ 4ee-\ 4cc\ 4e-\	.
4c\ 4G\	4gg\ 4ee-\ 4cc\ 4e-\	.
=151	=151	=151
4D\ 4DD\	8.dd\L 8.b\ 8.d\	.
.	16cc#X\Jk 16b\ 16c#X\	.
4B\ 4G\ 4D\	4dd\ 4b\ 4d\	.
*clefG2	*	*
8b\ 8g\ 8d\	8ddd\ 8bb\ 8dd\	sf
8r	8r	.
*clefF4	*	*
=152	=152	=152
*	*	*^
4D\ 4DD\	8.dd\L 8.a\ 8.d\	.	.
.	16cc#X\Jk 16a\ 16c#X\	.	.
!	!LO:TX:b:t=cresc.:ext=ut:problem=dynamics with extention lines	!LO:DY:t=cresc.	!
4c\ 4F#\ 4D\	4dd\ 4a\ 4d\	<	.
*clefG2	*	*	*
8cc\ 8f#\ 8d\	8ddd\ 8aa\ 8dd\	.	sf
8r	8r	[[	.
*clefF4	*	*	*
*	*	*v	*v
=153	=153	=153
!	!LO:TX:b:i:t=molto	!
4D\	8.ddd\L 8.aa\ 8.dd\	.
.	16ccc#X\Jk 16cc#X\	.
*clefG2	*	*
4cc\ 4f#\ 4d\	4ddd\ 4aa\ 4dd\	.
*	*8va	*
8ccc\ 8ff#\ 8dd\	8dddd\ 8aaa\ 8ddd\	sf
*	*X8va	*
!LO:TX:t=P:problem=brak klucza na końcu systemu	!	!
8r	8r	.
*clefF4	*	*
!!LO:LB:g=original
=154	=154	=154
*	*8va	*
4G\ 4GG\	8.ggg\L 8.ddd\ 8.bb\ 8.gg\	f
.	16dddd\K 16bbb\ 16ggg\ 16ddd\	.
*clefG2	*	*
4bb\ 4gg\	8.dddd\ 8.bbb\ 8.ggg\ 8.ddd\	.
.	16bbb\K 16ggg\ 16eee-X\ 16bb\	.
4gg\ 4ee-X\	8.bbb\ 8.ggg\ 8.eee-\ 8.bb\	.
.	16ggg\Jk 16ddd\ 16bb\ 16gg\	.
=155	=155	=155
4dd\ 4b\	8.ggg\L 8.ddd\ 8.bb\ 8.gg\	.
*	*X8va	*
!	!LO:TX:a:i:t=loc.	!
.	16ddd\K 16bb\ 16gg\ 16dd\	.
4b\ 4g\	8.ddd\ 8.bb\ 8.gg\ 8.dd\	.
.	16bb\K 16gg\ 16ee-X\ 16b\	.
4g\ 4e-X\	8.bb\ 8.gg\ 8.ee-\ 8.b\	.
.	16gg\Jk 16dd\ 16b\ 16g\	.
=156	=156	=156
4d/ 4B/ 4G/	8.gg\L 8.dd\ 8.b\ 8.g\	.
.	16ddd\K 16bb\ 16gg\ 16dd\	.
4b/ 4g/	8.ddd\ 8.bb\ 8.gg\ 8.dd\	.
.	16bb\K 16gg\ 16ee-X\ 16b\	.
4g/ 4e-X/	8.bb\ 8.gg\ 8.ee-\ 8.b\	.
.	16gg\Jk 16dd\ 16b\ 16g\	.
*clefF4	*	*
=157	=157	=157
4d\ 4B\	8.gg\L 8.dd\ 8.b\ 8.g\	.
.	16dd\K 16b\ 16g\ 16d\	.
4B\ 4G\	8.dd\ 8.b\ 8.g\ 8.d\	.
.	16b\K 16g\ 16e-X\ 16B\	.
4G\ 4E-X\	8.b\ 8.g\ 8.e-\ 8.B\	.
.	16g\Jk 16d\ 16B\ 16G\	.
=158	=158	=158
!	!LO:TX:a:i:t=con bravura.	!
4D\ 4GG\	8.g\L 8.d\ 8.B\ 8.G\	.
.	16dd\Jk 16b\ 16g\ 16d\	ff
4G\ 4D\	8.dd\L 8.b\ 8.g\ 8.d\	.
.	16g\Jk 16d\ 16B\ 16G\	.
4D\ 4GG\	8.g\L 8.d\ 8.B\ 8.G\	.
.	16gg\Jk 16dd\ 16b\ 16g\	.
=159	=159	=159
4B\ 4G\ 4D\	8.gg\L 8.dd\ 8.b\ 8.g\	.
.	16g\Jk 16d\ 16B\ 16G\	.
4D\ 4GG\	8.g\L 8.d\ 8.B\ 8.G\	.
.	16ddd\Jk 16bb\ 16gg\ 16dd\	.
4d\ 4B\ 4G\ 4D\	8.ddd\L 8.bb\ 8.gg\ 8.dd\	.
.	16g\Jk 16d\ 16B\ 16G\	.
!!LO:LB:g=original
=160	=160	=160
4GG/ 4GGG/	4g/ 4d/ 4B/ 4G/	.
4r	4r	.
4r	4r	.
*clefG2	*	*
=161	=161	=161
4dd/ 4g/ 4d/ 4B/	4bbb\ 4ggg\ 4ddd\ 4bb\	.
4r	4r	.
4r	4r	.
*clefF4	*	*
=162	=162	=162
!LO:TX:t=P:problem=brak klucza basowego	!LO:TX:b:i:t=Fin.	!
16qqG/ 16qqD/ 16qqGG/	16qqg/ 16qqd/ 16qqB/	.
2.G/ 2.D/ 2.GG/	2.g/ 2.d/ 2.B/	.
==	==	==
*-	*-	*-
!!!system-decoration: {(s1,s2)}
!!!RDF**kern: > = above
!!!RDF**dynam: sf = sf.
!!!RDF**dynam: ff = ff.
!!!RDF**dynam: f = f.
!!!RDF**dynam: p = p.
!!!RDF**dynam: pp = pp.
!!!RDF**kern: < = below
!!!EED: Andrzej Borzym
!!!EST: 2021-05-22
!!!ENC: Katarzyna Serwa
!!!END: 2021-05-06
